Adwaita++-Light/panel/16/si-syncthing-6.svg

<svg height="16" width="16" xmlns="http://www.w3.org/2000/svg">
  <path d="m11.5 14.062178a7 7 0 0 0 2.562178-9.562178 7 7 0 0 0 -9.5621778-2.5621778 7 7 0 0 0 -2.562178 9.5621778 7 7 0 0 0 9.5621778 2.562178zm-1-1.732051a5 5 0 0 1 -6.2789484-1.059052 1.5 1.5 0 0 1 -1.6672033-.704088 1.5 1.5 0 0 1 .4833327-2.0065918 5 5 0 0 1 .9431362-3.5305034 1.5 1.5 0 0 1 .5866709-1.9760439 1.5 1.5 0 0 1 1.7968607.2255354 5 5 0 0 1 5.9662782 2.2206167 5 5 0 0 1 .04128.075402 1.5 1.5 0 0 1 1.574747.7236372 1.5 1.5 0 0 1 -.549038 2.049038 1.5 1.5 0 0 1 -.430243.1649548 5 5 0 0 1 -2.466873 3.817095zm-.5-.866025a4 4 0 0 0 1.975978-3.0736012 1.5 1.5 0 0 1 -.627902-.5914628 1.5 1.5 0 0 1 -.026889-.0543869l-2.5340889.3647363a1.5 1.5 0 0 1 -.7201106 1.006638 1.5 1.5 0 0 1 -1.7229226-.1599707l-1.0182568.5878908a1.5 1.5 0 0 1 -.2664064 1.1596625 4 4 0 0 0 4.9405983.760494zm1.178696-4.7084402a1.5 1.5 0 0 1 .326945-.6759016 4 4 0 0 0 -.041539-.0797602 4 4 0 0 0 -4.6582163-1.814361 1.5 1.5 0 0 1 -.3498311 1.140169l.5878909 1.0182567a1.5 1.5 0 0 1 1.5720801.7229226 1.5 1.5 0 0 1 .026887.054391zm-5.3346309 1.3343674a1.5 1.5 0 0 1 .3338552-1.2459643l-.5878912-1.0182569a1.5 1.5 0 0 1 -.8733099-.1024619 4 4 0 0 0 -.6977362 2.6039855 1.5 1.5 0 0 1 .8068232.350592z" fill="#444"/>
</svg>

<svg xmlns="http://www.w3.org/2000/svg" width="16" height="16" version="1.1">
 <defs>
  <style id="current-color-scheme" type="text/css">
   .ColorScheme-Text { color:#444444; } .ColorScheme-Highlight { color:#4285f4; }
  </style>
 </defs>
 <path style="fill:currentColor" class="ColorScheme-Text" d="M 11.5,14.062178 A 7,7 0 0 0 14.062178,4.5 7,7 0 0 0 4.5000002,1.9378222 7,7 0 0 0 1.9378222,11.5 7,7 0 0 0 11.5,14.062178 Z m -1,-1.732051 A 5,5 0 0 1 4.2210516,11.271075 1.5,1.5 0 0 1 2.5538483,10.566987 1.5,1.5 0 0 1 3.037181,8.5603952 5,5 0 0 1 3.9803172,5.0298918 1.5,1.5 0 0 1 4.5669881,3.0538479 1.5,1.5 0 0 1 6.3638488,3.2793833 5,5 0 0 1 12.330127,5.5 a 5,5 0 0 1 0.04128,0.075402 1.5,1.5 0 0 1 1.574747,0.7236372 1.5,1.5 0 0 1 -0.549038,2.049038 A 1.5,1.5 0 0 1 12.966873,8.513032 5,5 0 0 1 10.5,12.330127 Z M 10,11.464102 A 4,4 0 0 0 11.975978,8.3905008 1.5,1.5 0 0 1 11.348076,7.799038 1.5,1.5 0 0 1 11.321187,7.7446511 L 8.7870981,8.1093874 A 1.5,1.5 0 0 1 8.0669875,9.1160254 1.5,1.5 0 0 1 6.3440649,8.9560547 L 5.3258081,9.5439455 A 1.5,1.5 0 0 1 5.0594017,10.703608 4,4 0 0 0 10,11.464102 Z M 11.178696,6.7556618 A 1.5,1.5 0 0 1 11.505641,6.0797602 4,4 0 0 0 11.464102,6 4,4 0 0 0 6.8058857,4.185639 1.5,1.5 0 0 1 6.4560546,5.325808 l 0.5878909,1.0182567 a 1.5,1.5 0 0 1 1.5720801,0.7229226 1.5,1.5 0 0 1 0.026887,0.054391 L 11.178696,6.7556618 Z M 5.8440651,8.0900292 A 1.5,1.5 0 0 1 6.1779203,6.8440649 L 5.5900291,5.825808 A 1.5,1.5 0 0 1 4.7167192,5.7233461 4,4 0 0 0 4.018983,8.3273316 1.5,1.5 0 0 1 4.8258062,8.6779236 L 5.8440651,8.0900292 Z"/>
</svg>
